X: 8442
T: Crabs In The Skillet
R: jig
M: 6/8
K: Gminor
|:~G3 d2^F|~G2A B2c|~d3 cBA|dcB AG^F|
~G3 d2^F|~G2A B2d|cAc f=ed|1 cAF F=EF:|2 cAF G2d||
|:~g3 ~g3|~f3 f=ed|cd=e f=ed|cAF F2d|
~g3 ~g3|f2f f=ed|cd=e f=ed|1 cAF GB/^c/d:|2 cAF F=EF||
|:~G3 ~A3|~B3 ~c3|ded cBA|dcB AG^F|
~G3 ~A3|~B3 d3|cAc f=ed|1 cAF F=EF:|2 cAF G3||

